icons/circle/48/harmony.svg

<svg xmlns="http://www.w3.org/2000/svg" viewBox="0 0 48 48">
 <defs>
  <linearGradient id="linearGradient3828" y1="1" x2="0" y2="47" gradientUnits="userSpaceOnUse">
   <stop style="stop-color:#979ed1;stop-opacity:1"/>
   <stop offset="1" style="stop-color:#8991cb;stop-opacity:1"/>
  </linearGradient>
  <linearGradient id="linearGradient3838" y1="1" x2="0" y2="47" gradientUnits="userSpaceOnUse">
   <stop style="stop-color:#19bb83;stop-opacity:1"/>
   <stop offset="1" style="stop-color:#17a977;stop-opacity:1"/>
  </linearGradient>
  <linearGradient id="linearGradient3846" y1="47" x2="0" y2="1" gradientUnits="userSpaceOnUse">
   <stop style="stop-color:#e5ae31;stop-opacity:1"/>
   <stop offset="1" style="stop-color:#e7b543;stop-opacity:1"/>
  </linearGradient>
  <linearGradient id="linearGradient3854" y1="47" x2="0" y2="1" gradientUnits="userSpaceOnUse">
   <stop style="stop-color:#e36d5d;stop-opacity:1"/>
   <stop offset="1" style="stop-color:#e67c6e;stop-opacity:1"/>
  </linearGradient>
 </defs>
 <g>
  <path d="m 36.31 5 c 5.859 4.062 9.688 10.831 9.688 18.5 c 0 12.426 -10.07 22.5 -22.5 22.5 c -7.669 0 -14.438 -3.828 -18.5 -9.688 c 1.037 1.822 2.306 3.499 3.781 4.969 c 4.085 3.712 9.514 5.969 15.469 5.969 c 12.703 0 23 -10.298 23 -23 c 0 -5.954 -2.256 -11.384 -5.969 -15.469 c -1.469 -1.475 -3.147 -2.744 -4.969 -3.781 z m 4.969 3.781 c 3.854 4.113 6.219 9.637 6.219 15.719 c 0 12.703 -10.297 23 -23 23 c -6.081 0 -11.606 -2.364 -15.719 -6.219 c 4.16 4.144 9.883 6.719 16.219 6.719 c 12.703 0 23 -10.298 23 -23 c 0 -6.335 -2.575 -12.06 -6.719 -16.219 z" style="opacity:0.05"/>
  <path d="m 41.28 8.781 c 3.712 4.085 5.969 9.514 5.969 15.469 c 0 12.703 -10.297 23 -23 23 c -5.954 0 -11.384 -2.256 -15.469 -5.969 c 4.113 3.854 9.637 6.219 15.719 6.219 c 12.703 0 23 -10.298 23 -23 c 0 -6.081 -2.364 -11.606 -6.219 -15.719 z" style="opacity:0.1"/>
  <path d="m 31.25 2.375 c 8.615 3.154 14.75 11.417 14.75 21.13 c 0 12.426 -10.07 22.5 -22.5 22.5 c -9.708 0 -17.971 -6.135 -21.12 -14.75 a 23 23 0 0 0 44.875 -7 a 23 23 0 0 0 -16 -21.875 z" style="opacity:0.2"/>
 </g>
 <path d="m 24 1 c -12.703 0 -23 10.297 -23 23 c 7.718 0.309 15.73 2.378 23 0 1.809 -7.588 2.02 -15.245 0 -23 z" style="fill:url(#linearGradient3838);fill-opacity:1;stroke:none;fill-rule:evenodd"/>
 <path d="m 24 1 0 23 c 7.327 1.273 15.01 1.226 23 0 c 0 -12.703 -10.297 -23 -23 -23" style="fill:url(#linearGradient3828);fill-opacity:1;stroke:none;fill-rule:evenodd"/>
 <path d="m 24 24 c -2.585 7.314 -0.902 15.21 0 23 12.703 0 23 -10.297 23 -23 z" style="fill:url(#linearGradient3854);fill-opacity:1;stroke:none;fill-rule:evenodd"/>
 <path d="m 1 24 c 0 12.703 10.297 23 23 23 l 0 -23 l -23 0 z" style="fill:url(#linearGradient3846);fill-opacity:1;stroke:none;fill-rule:evenodd"/>
 <g>
  <path d="m 40.03 7.531 c 3.712 4.084 5.969 9.514 5.969 15.469 0 12.703 -10.297 23 -23 23 c -5.954 0 -11.384 -2.256 -15.469 -5.969 4.178 4.291 10.01 6.969 16.469 6.969 c 12.703 0 23 -10.298 23 -23 0 -6.462 -2.677 -12.291 -6.969 -16.469 z" style="opacity:0.1"/>
 </g>
 <path d="M 29.891,12.012 C 25.3,11.893 22.032,12.565 18,15.172 l 0,14.971 C 17.678,30.06 17.348,30 17,30 c -2.211,0 -4,1.789 -4,4 0,2.211 1.789,4 4,4 2.207,0 4,-1.789 4,-4 0,-0.029 -0.007,-0.055 -0.008,-0.084 0.003,0 0.005,0 0.008,-0.002 l 0,-12.973 c 3.77,-2.699 6.711,-3.348 11,-2.332 l 0,9.533 c -0.322,-0.084 -0.652,-0.143 -1,-0.143 -2.211,0 -4,1.793 -4,4 0,2.211 1.789,4 4,4 2.168,0 3.927,-1.73 3.988,-3.887 0.004,0 0.007,0.003 0.012,0.004 l 0,-0.117 0,-19.648 c -1.901,-0.173 -3.579,-0.3 -5.109,-0.34 z" style="opacity:0.1"/>
 <path d="m 20 19.943 c 3.77 -2.699 6.711 -3.348 11 -2.332 l 0 10.06 c -0.203 0.398 -1.066 2.348 3 3.449 l 0 -19.766 c -7.605 -0.691 -11.625 -0.656 -17 2.82 l 0 15.824 c 1.359 -2.051 -5.586 4.84 3 2.918 m 0 -12.973" style="fill:#f9f9f9;fill-opacity:1;stroke:none;fill-rule:nonzero"/>
 <path d="m 20 33 c 0 2.211 -1.793 4 -4 4 -2.211 0 -4 -1.789 -4 -4 0 -2.211 1.789 -4 4 -4 2.207 0 4 1.789 4 4 m 0 0" style="fill:#f9f9f9;fill-opacity:1;stroke:none;fill-rule:nonzero"/>
 <path d="m 34 31 c 0 2.211 -1.793 4 -4 4 -2.211 0 -4 -1.789 -4 -4 0 -2.207 1.789 -4 4 -4 2.207 0 4 1.793 4 4 m 0 0" style="fill:#f9f9f9;fill-opacity:1;stroke:none;fill-rule:nonzero"/>
</svg>

<svg xmlns="http://www.w3.org/2000/svg" viewBox="0 0 48 48">
  <defs>
    <linearGradient id="b" y1="1" x2="0" y2="47" gradientUnits="userSpaceOnUse">
      <stop stop-color="#979ed1"/>
      <stop offset="1" stop-color="#8991cb"/>
    </linearGradient>
    <linearGradient id="a" y1="1" x2="0" y2="47" gradientUnits="userSpaceOnUse">
      <stop stop-color="#19bb83"/>
      <stop offset="1" stop-color="#17a977"/>
    </linearGradient>
    <linearGradient id="d" y1="47" x2="0" y2="1" gradientUnits="userSpaceOnUse">
      <stop stop-color="#e5ae31"/>
      <stop offset="1" stop-color="#e7b543"/>
    </linearGradient>
    <linearGradient id="c" y1="47" x2="0" y2="1" gradientUnits="userSpaceOnUse">
      <stop stop-color="#e36d5d"/>
      <stop offset="1" stop-color="#e67c6e"/>
    </linearGradient>
  </defs>
  <path d="M36.31 5c5.859 4.062 9.688 10.831 9.688 18.5 0 12.426-10.07 22.5-22.5 22.5-7.669 0-14.438-3.828-18.5-9.688a23.24 23.24 0 0 0 3.781 4.969 22.923 22.923 0 0 0 15.469 5.969c12.703 0 23-10.298 23-23a22.92 22.92 0 0 0-5.969-15.469A23.216 23.216 0 0 0 36.31 5zm4.969 3.781A22.911 22.911 0 0 1 47.498 24.5c0 12.703-10.297 23-23 23a22.909 22.909 0 0 1-15.719-6.219C12.939 45.425 18.662 48 24.998 48c12.703 0 23-10.298 23-23 0-6.335-2.575-12.06-6.719-16.219z" opacity=".05"/>
  <path d="M41.28 8.781a22.923 22.923 0 0 1 5.969 15.469c0 12.703-10.297 23-23 23A22.92 22.92 0 0 1 8.78 41.281 22.911 22.911 0 0 0 24.499 47.5c12.703 0 23-10.298 23-23A22.909 22.909 0 0 0 41.28 8.781z" opacity=".1"/>
  <path d="M31.25 2.375C39.865 5.529 46 13.792 46 23.505c0 12.426-10.07 22.5-22.5 22.5-9.708 0-17.971-6.135-21.12-14.75a23 23 0 0 0 44.875-7 23 23 0 0 0-16-21.875z" opacity=".2"/>
  <path d="M24 1C11.297 1 1 11.297 1 24c7.718.309 15.73 2.378 23 0 1.809-7.588 2.02-15.245 0-23z" fill="url(#a)" fill-rule="evenodd"/>
  <path d="M24 1v23c7.327 1.273 15.01 1.226 23 0C47 11.297 36.703 1 24 1" fill="url(#b)" fill-rule="evenodd"/>
  <path d="M24 24c-2.585 7.314-.902 15.21 0 23 12.703 0 23-10.297 23-23z" fill="url(#c)" fill-rule="evenodd"/>
  <path d="M1 24c0 12.703 10.297 23 23 23V24H1z" fill="url(#d)" fill-rule="evenodd"/>
  <path d="M40.03 7.531A22.922 22.922 0 0 1 45.999 23c0 12.703-10.297 23-23 23A22.92 22.92 0 0 1 7.53 40.031C11.708 44.322 17.54 47 23.999 47c12.703 0 23-10.298 23-23 0-6.462-2.677-12.291-6.969-16.469z" opacity=".1"/>
  <path d="M29.891 12.012c-4.591-.119-7.859.553-11.891 3.16v14.971A3.978 3.978 0 0 0 17 30c-2.211 0-4 1.789-4 4a4 4 0 0 0 8 0c0-.029-.007-.055-.008-.084.003 0 .005 0 .008-.002V20.941c3.77-2.699 6.711-3.348 11-2.332v9.533a3.933 3.933 0 0 0-1-.143 4 4 0 0 0 0 8 3.994 3.994 0 0 0 3.988-3.887c.004 0 .007.003.012.004V12.351c-1.901-.173-3.579-.3-5.109-.34z" opacity=".1"/>
  <path d="M20 19.943c3.77-2.699 6.711-3.348 11-2.332v10.06c-.203.398-1.066 2.348 3 3.449V11.354c-7.605-.691-11.625-.656-17 2.82v15.824c1.359-2.051-5.586 4.84 3 2.918m0-12.973" fill="#f9f9f9"/>
  <path d="M20 33a4 4 0 1 1-8 0 4 4 0 0 1 8 0m0 0M34 31a4 4 0 1 1-8 0 4 4 0 0 1 8 0m0 0" fill="#f9f9f9"/>
</svg>
